packages/bezier-icons/icons/screenshare-filled.svg

<svg width="24" height="24" viewBox="0 0 24 24" fill="none" xmlns="http://www.w3.org/2000/svg">
<path fill-rule="evenodd" clip-rule="evenodd" d="M6 4C3.79086 4 2 5.79086 2 8V16C2 18.2091 3.79086 20 6 20H18C20.2091 20 22 18.2091 22 16V8C22 5.79086 20.2091 4 18 4H6ZM7.29289 12.7071C6.90237 12.3166 6.90237 11.6834 7.29289 11.2929L10.5858 8C11.3668 7.21895 12.6332 7.21895 13.4142 8L16.7071 11.2929C17.0976 11.6834 17.0976 12.3166 16.7071 12.7071C16.3166 13.0976 15.6834 13.0976 15.2929 12.7071L13 10.4142L13 17C13 17.5523 12.5523 18 12 18C11.4477 18 11 17.5523 11 17L11 10.4142L8.70711 12.7071C8.31658 13.0976 7.68342 13.0976 7.29289 12.7071Z" fill="#313234"/>
</svg>

<svg xmlns="http://www.w3.org/2000/svg" width="24" height="24" fill="none" viewBox="0 0 24 24"><path fill="#313234" fill-rule="evenodd" d="M6 4a4 4 0 0 0-4 4v8a4 4 0 0 0 4 4h12a4 4 0 0 0 4-4V8a4 4 0 0 0-4-4zm1.293 8.707a1 1 0 0 1 0-1.414L10.586 8a2 2 0 0 1 2.828 0l3.293 3.293a1 1 0 0 1-1.414 1.414L13 10.414V17a1 1 0 1 1-2 0v-6.586l-2.293 2.293a1 1 0 0 1-1.414 0" clip-rule="evenodd"/></svg>
